X: 10
T: The Beauty Spot
R: reel
M: 4/4
L: 1/8
K: Dmix
.A.A GB A2 dB |.c2 .c GE ~G3 | .A.c.A GB A2 dB | cBcG EA D2|
A2 GB A2 dB | cBcG E ~G3 | G ~A2 dA ~B2 d | cBcG ED D2 |
ed (3.B.c.d edcd | ed (3.B.c.d e ~g3 | ed (3.B.c.d edcB | ABcd ed d2 |
ed (3.B.c.d edcd | ed (3.B.c.d e ~g3 | f.age .d.c~G | GAcd egdc :|


Tune 1270	Setting 23041

